X: 37293
T: Skolion Of Seikilos
R: jig
M: 6/8
K: Dmajor
A2e e3|cde d3|c2c edc|BAB G3|
Ace dcd|cAB G3|AcB dec|A>AF E3||

